X: 41869
T: Viva Galicia
R: reel
M: 4/4
K: Aminor
|:Aeed eff2|eded cBA2|cddc B2B2|BABc B2AG|
Aeed eff2|eded cBA2|cddc B2B2|BABc B2A2:|
cddc B2B2|BABc B2A2|cddc B2B2|BABc B2A2|
cddc B2B2|BABc B2A2|cddc B2B2|BABc B4||
|:ABcB cdcd|edef ffe2|ABcB cdcd|edcB BBAG:|

